; G-Code generated by Simplify3D(R) Version 4.0.0
; Feb 24, 2023 at 4:50:36 PM
; Settings Summary
;   processName,R.A.E.D PLA
;   applyToModels,Spiralvase2
;   profileName,R.A.E.D (modified)
;   profileVersion,2017-12-09 22:19:54
;   baseProfile,
;   printMaterial,PLA
;   printQuality,Medium
;   printExtruders,
;   extruderName,Primary Extruder
;   extruderToolheadNumber,0
;   extruderDiameter,0.8
;   extruderAutoWidth,1
;   extruderWidth,0.96
;   extrusionMultiplier,0.9
;   extruderUseRetract,1
;   extruderRetractionDistance,5
;   extruderExtraRestartDistance,0
;   extruderRetractionZLift,0
;   extruderRetractionSpeed,3400
;   extruderUseCoasting,1
;   extruderCoastingDistance,0.2
;   extruderUseWipe,1
;   extruderWipeDistance,5
;   primaryExtruder,0
;   layerHeight,0.2
;   topSolidLayers,0
;   bottomSolidLayers,2
;   perimeterOutlines,1
;   printPerimetersInsideOut,1
;   startPointOption,2
;   startPointOriginX,0
;   startPointOriginY,0
;   sequentialIslands,0
;   spiralVaseMode,1
;   firstLayerHeightPercentage,120
;   firstLayerWidthPercentage,150
;   firstLayerUnderspeed,0.5
;   useRaft,0
;   raftExtruder,0
;   raftTopLayers,3
;   raftBaseLayers,2
;   raftOffset,3
;   raftSeparationDistance,0.14
;   raftTopInfill,100
;   aboveRaftSpeedMultiplier,0.3
;   useSkirt,1
;   skirtExtruder,0
;   skirtLayers,1
;   skirtOutlines,1
;   skirtOffset,1
;   usePrimePillar,0
;   primePillarExtruder,999
;   primePillarWidth,12
;   primePillarLocation,7
;   primePillarSpeedMultiplier,1
;   useOozeShield,0
;   oozeShieldExtruder,999
;   oozeShieldOffset,2
;   oozeShieldOutlines,1
;   oozeShieldSidewallShape,1
;   oozeShieldSidewallAngle,30
;   oozeShieldSpeedMultiplier,1
;   infillExtruder,0
;   internalInfillPattern,Rectilinear
;   externalInfillPattern,Rectilinear
;   infillPercentage,0
;   outlineOverlapPercentage,35
;   infillExtrusionWidthPercentage,110
;   minInfillLength,4
;   infillLayerInterval,2
;   internalInfillAngles,45,-45
;   overlapInternalInfillAngles,0
;   externalInfillAngles,45,-45
;   generateSupport,0
;   supportExtruder,0
;   supportInfillPercentage,25
;   supportExtraInflation,0.6
;   supportBaseLayers,1
;   denseSupportExtruder,0
;   denseSupportLayers,1
;   denseSupportInfillPercentage,40
;   supportLayerInterval,1
;   supportHorizontalPartOffset,0.5
;   supportUpperSeparationLayers,1
;   supportLowerSeparationLayers,1
;   supportType,0
;   supportGridSpacing,3
;   maxOverhangAngle,45
;   supportAngles,0
;   temperatureName,Primary Extruder,Heated Bed
;   temperatureNumber,0,0
;   temperatureSetpointCount,1,1
;   temperatureSetpointLayers,1,1
;   temperatureSetpointTemperatures,200,60
;   temperatureStabilizeAtStartup,1,1
;   temperatureHeatedBed,0,1
;   temperatureRelayBetweenLayers,0,0
;   temperatureRelayBetweenLoops,0,0
;   fanLayers,1,2
;   fanSpeeds,0,100
;   blipFanToFullPower,0
;   adjustSpeedForCooling,1
;   minSpeedLayerTime,10
;   minCoolingSpeedSlowdown,20
;   increaseFanForCooling,0
;   minFanLayerTime,45
;   maxCoolingFanSpeed,100
;   increaseFanForBridging,0
;   bridgingFanSpeed,100
;   use5D,1
;   relativeEdistances,0
;   allowEaxisZeroing,1
;   independentExtruderAxes,0
;   includeM10123,0
;   stickySupport,1
;   applyToolheadOffsets,0
;   gcodeXoffset,0
;   gcodeYoffset,0
;   gcodeZoffset,0
;   overrideMachineDefinition,1
;   machineTypeOverride,0
;   strokeXoverride,130
;   strokeYoverride,130
;   strokeZoverride,150
;   originOffsetXoverride,0
;   originOffsetYoverride,-6
;   originOffsetZoverride,0
;   homeXdirOverride,-1
;   homeYdirOverride,-1
;   homeZdirOverride,-1
;   flipXoverride,1
;   flipYoverride,-1
;   flipZoverride,1
;   toolheadOffsets,0,0|0,0|0,0|0,0|0,0|0,0
;   overrideFirmwareConfiguration,1
;   firmwareTypeOverride,RepRap (Marlin/Repetier/Sprinter)
;   GPXconfigOverride,r2
;   baudRateOverride,250000
;   overridePrinterModels,1
;   printerModelsOverride
;   startingGcode,G28 ; home all axes,G1 Z0.2 F3000 ; get ready to prime,G92 E0 ; reset extrusion distance,G29  ; Auto Bed Leveling,
;   layerChangeGcode,
;   retractionGcode,
;   toolChangeGcode,
;   endingGcode,G28 X0 ; home x axis,G1 Y120,M106 S0 ; turn off cooling fan,M104 S0 ; turn off extruder,M140 S0 ; turn off bed,M84 ; disable motors
;   exportFileFormat,gcode
;   celebration,0
;   celebrationSong,Star Wars
;   postProcessing,
;   defaultSpeed,2000
;   outlineUnderspeed,0.5
;   solidInfillUnderspeed,0.45
;   supportUnderspeed,0.75
;   rapidXYspeed,2000
;   rapidZspeed,1002
;   minBridgingArea,50
;   bridgingExtraInflation,0
;   bridgingExtrusionMultiplier,1
;   bridgingSpeedMultiplier,1
;   useFixedBridgingAngle,0
;   fixedBridgingAngle,0
;   applyBridgingToPerimeters,0
;   filamentDiameters,1.75|1.75|1.75|1.75|1.75|1.75
;   filamentPricesPerKg,46|46|46|46|46|46
;   filamentDensities,1.25|1.25|1.25|1.25|1.25|1.25
;   useMinPrintHeight,0
;   minPrintHeight,0
;   useMaxPrintHeight,0
;   maxPrintHeight,0
;   useDiaphragm,0
;   diaphragmLayerInterval,20
;   robustSlicing,1
;   mergeAllIntoSolid,0
;   onlyRetractWhenCrossingOutline,1
;   retractBetweenLayers,1
;   useRetractionMinTravel,0
;   retractionMinTravel,3
;   retractWhileWiping,0
;   onlyWipeOutlines,1
;   avoidCrossingOutline,0
;   maxMovementDetourFactor,3
;   toolChangeRetractionDistance,12
;   toolChangeExtraRestartDistance,-0.5
;   toolChangeRetractionSpeed,600
;   externalThinWallType,0
;   internalThinWallType,0
;   thinWallAllowedOverlapPercentage,10
;   singleExtrusionMinLength,2
;   singleExtrusionMinPrintingWidthPercentage,50
;   singleExtrusionMaxPrintingWidthPercentage,200
;   singleExtrusionEndpointExtension,0.2
;   horizontalSizeCompensation,0
G90
M82
M106 S0
M140 S60
M190 S60
M104 S200 T0
M109 S200 T0
G28 ; home all axes
G1 Z0.2 F3000 ; get ready to prime
G92 E0 ; reset extrusion distance
G29  ; Auto Bed Leveling
G92 E0
G1 E-5.0000 F3400
G1 Z0.240 F1002
; process R.A.E.D PLA
; layer 1, Z = 0.240
T0
; tool H0.240 W1.440
; skirt
G1 X54.401 Y59.754 F2000
G1 E0.0000 F1020
G92 E0
G1 X54.824 Y59.373 E0.0736 F1000
G1 X54.842 Y59.358 E0.0766
G1 X54.939 Y59.287 E0.0922
G1 X54.958 Y59.274 E0.0952
G1 X55.359 Y59.034 E0.1555
G1 X55.385 Y59.020 E0.1594
G1 X55.528 Y58.958 E0.1796
G1 X55.556 Y58.947 E0.1835
G1 X56.020 Y58.810 E0.2460
G1 X56.047 Y58.804 E0.2495
G1 X56.185 Y58.780 E0.2678
G1 X56.213 Y58.776 E0.2713
G1 X56.239 Y58.775 E0.2747
G1 X56.321 Y58.590 E0.3009
G1 X56.338 Y58.557 E0.3056
G1 X56.440 Y58.397 E0.3302
G1 X56.462 Y58.368 E0.3350
G1 X56.806 Y57.978 E0.4022
G1 X56.826 Y57.958 E0.4058
G1 X56.933 Y57.861 E0.4245
G1 X56.955 Y57.844 E0.4281
G1 X57.265 Y57.624 E0.4773
G1 X57.278 Y57.616 E0.4792
G1 X57.343 Y57.575 E0.4891
G1 X57.355 Y57.568 E0.4910
G1 X58.020 Y57.211 E0.5885
G1 X58.026 Y57.208 E0.5894
G1 X58.056 Y57.193 E0.5938
G1 X58.062 Y57.190 E0.5947
G1 X58.848 Y56.822 E0.7069
G1 X58.855 Y56.819 E0.7078
G1 X58.887 Y56.805 E0.7124
G1 X58.893 Y56.802 E0.7132
G1 X59.645 Y56.502 E0.8179
G1 X59.654 Y56.498 E0.8192
G1 X59.702 Y56.481 E0.8258
G1 X59.712 Y56.478 E0.8271
G1 X61.225 Y56.013 E1.0318
G1 X61.235 Y56.010 E1.0331
G1 X61.286 Y55.997 E1.0399
G1 X61.295 Y55.994 E1.0412
G1 X62.138 Y55.812 E1.1528
G1 X62.145 Y55.810 E1.1536
G1 X62.179 Y55.804 E1.1581
G1 X62.185 Y55.803 E1.1590
G1 X62.976 Y55.677 E1.2625
G1 X62.983 Y55.676 E1.2634
G1 X63.016 Y55.672 E1.2678
G1 X63.023 Y55.671 E1.2686
G1 X63.818 Y55.589 E1.3720
G1 X63.825 Y55.589 E1.3729
G1 X63.859 Y55.586 E1.3773
G1 X63.865 Y55.586 E1.3781
G1 X64.665 Y55.547 E1.4817
G1 X64.672 Y55.547 E1.4825
G1 X64.706 Y55.546 E1.4869
G1 X64.712 Y55.546 E1.4878
G1 X65.513 Y55.552 E1.5913
G1 X65.520 Y55.552 E1.5922
G1 X65.556 Y55.554 E1.5968
G1 X65.563 Y55.554 E1.5977
G1 X66.421 Y55.609 E1.7089
G1 X66.430 Y55.610 E1.7101
G1 X66.478 Y55.615 E1.7164
G1 X66.487 Y55.616 E1.7176
G1 X67.865 Y55.814 E1.8975
G1 X67.892 Y55.819 E1.9011
G1 X68.032 Y55.857 E1.9199
G1 X68.059 Y55.865 E1.9235
G1 X68.507 Y56.042 E1.9858
G1 X68.534 Y56.055 E1.9897
G1 X68.670 Y56.130 E2.0098
G1 X68.696 Y56.146 E2.0136
G1 X69.089 Y56.430 E2.0764
G1 X69.112 Y56.449 E2.0802
G1 X69.223 Y56.553 E2.0999
G1 X69.230 Y56.560 E2.1012
G1 X69.509 Y56.506 E2.1379
G1 X69.542 Y56.501 E2.1423
G1 X69.714 Y56.492 E2.1645
G1 X69.747 Y56.492 E2.1688
G1 X70.309 Y56.540 E2.2417
G1 X70.336 Y56.544 E2.2453
G1 X70.475 Y56.572 E2.2637
G1 X70.502 Y56.578 E2.2672
G1 X70.787 Y56.671 E2.3060
G1 X70.799 Y56.675 E2.3076
G1 X70.859 Y56.698 E2.3159
G1 X70.871 Y56.703 E2.3176
G1 X71.630 Y57.039 E2.4249
G1 X71.639 Y57.043 E2.4262
G1 X71.686 Y57.066 E2.4330
G1 X71.695 Y57.071 E2.4343
G1 X72.976 Y57.773 E2.6231
G1 X73.004 Y57.791 E2.6275
G1 X73.143 Y57.894 E2.6499
G1 X73.168 Y57.916 E2.6542
G1 X73.495 Y58.239 E2.7136
G1 X73.510 Y58.256 E2.7165
G1 X73.585 Y58.346 E2.7317
G1 X73.599 Y58.364 E2.7346
G1 X73.768 Y58.610 E2.7732
G1 X73.780 Y58.630 E2.7763
G1 X73.839 Y58.738 E2.7921
G1 X73.849 Y58.759 E2.7952
G1 X73.898 Y58.874 E2.8113
G1 X74.154 Y58.914 E2.8448
G1 X74.176 Y58.918 E2.8477
G1 X74.287 Y58.946 E2.8625
G1 X74.308 Y58.953 E2.8654
G1 X74.592 Y59.053 E2.9043
G1 X74.618 Y59.064 E2.9079
G1 X74.748 Y59.128 E2.9266
G1 X74.772 Y59.142 E2.9303
G1 X75.261 Y59.457 E3.0055
G1 X75.280 Y59.470 E3.0085
G1 X75.373 Y59.544 E3.0238
G1 X75.390 Y59.559 E3.0267
G1 X75.949 Y60.094 E3.1269
G1 X75.954 Y60.099 E3.1278
G1 X75.978 Y60.123 E3.1322
G1 X75.983 Y60.128 E3.1330
G1 X76.581 Y60.768 E3.2464
G1 X76.588 Y60.776 E3.2477
G1 X76.623 Y60.816 E3.2545
G1 X76.629 Y60.823 E3.2558
G1 X77.609 Y62.067 E3.4606
G1 X77.615 Y62.075 E3.4619
G1 X77.645 Y62.117 E3.4685
G1 X77.651 Y62.125 E3.4698
G1 X78.097 Y62.799 E3.5744
G1 X78.101 Y62.805 E3.5753
G1 X78.120 Y62.835 E3.5798
G1 X78.123 Y62.841 E3.5807
G1 X78.553 Y63.579 E3.6911
G1 X78.557 Y63.584 E3.6920
G1 X78.573 Y63.615 E3.6965
G1 X78.576 Y63.621 E3.6974
G1 X78.944 Y64.342 E3.8020
G1 X78.948 Y64.351 E3.8033
G1 X78.970 Y64.397 E3.8099
G1 X78.974 Y64.406 E3.8112
G1 X79.574 Y65.870 E4.0158
G1 X79.578 Y65.880 E4.0171
G1 X79.595 Y65.928 E4.0237
G1 X79.599 Y65.937 E4.0250
G1 X79.843 Y66.709 E4.1297
G1 X79.845 Y66.715 E4.1306
G1 X79.855 Y66.749 E4.1352
G1 X79.857 Y66.756 E4.1361
G1 X80.067 Y67.583 E4.2464
G1 X80.069 Y67.589 E4.2472
G1 X80.077 Y67.623 E4.2518
G1 X80.078 Y67.630 E4.2526
G1 X80.232 Y68.415 E4.3561
G1 X80.233 Y68.422 E4.3570
G1 X80.239 Y68.455 E4.3613
G1 X80.240 Y68.461 E4.3621
G1 X80.324 Y69.063 E4.4407
G1 X80.326 Y69.087 E4.4438
G1 X80.331 Y69.211 E4.4600
G1 X80.331 Y69.236 E4.4631
G1 X80.303 Y69.696 E4.5227
G1 X80.300 Y69.721 E4.5260
G1 X80.277 Y69.854 E4.5434
G1 X80.271 Y69.879 E4.5467
G1 X80.166 Y70.248 E4.5964
G1 X80.156 Y70.276 E4.6002
G1 X80.098 Y70.415 E4.6197
G1 X80.085 Y70.441 E4.6235
G1 X80.032 Y70.533 E4.6372
G1 X80.081 Y70.615 E4.6495
G1 X80.097 Y70.648 E4.6542
G1 X80.297 Y71.145 E4.7236
G1 X80.308 Y71.179 E4.7282
G1 X80.351 Y71.359 E4.7521
G1 X80.357 Y71.394 E4.7568
G1 X80.407 Y71.984 E4.8333
G1 X80.408 Y72.007 E4.8362
G1 X80.407 Y72.124 E4.8513
G1 X80.406 Y72.146 E4.8542
G1 X80.320 Y72.981 E4.9627
G1 X80.319 Y72.990 E4.9639
G1 X80.312 Y73.036 E4.9700
G1 X80.311 Y73.045 E4.9711
G1 X80.072 Y74.375 E5.1458
G1 X80.066 Y74.401 E5.1493
G1 X80.025 Y74.535 E5.1674
G1 X80.016 Y74.560 E5.1709
G1 X79.829 Y74.998 E5.2325
G1 X79.816 Y75.025 E5.2364
G1 X79.737 Y75.160 E5.2565
G1 X79.721 Y75.185 E5.2604
G1 X79.416 Y75.581 E5.3250
G1 X79.394 Y75.606 E5.3294
G1 X79.277 Y75.722 E5.3506
G1 X79.316 Y75.965 E5.3825
G1 X79.318 Y75.987 E5.3853
G1 X79.326 Y76.100 E5.4001
G1 X79.327 Y76.122 E5.4029
G1 X79.320 Y76.410 E5.4401
G1 X79.318 Y76.433 E5.4431
G1 X79.304 Y76.550 E5.4584
G1 X79.300 Y76.573 E5.4614
G1 X79.201 Y77.027 E5.5214
G1 X79.193 Y77.053 E5.5249
G1 X79.148 Y77.185 E5.5430
G1 X79.138 Y77.210 E5.5464
G1 X78.753 Y78.028 E5.6634
G1 X78.749 Y78.035 E5.6644
G1 X78.731 Y78.071 E5.6696
G1 X78.728 Y78.077 E5.6706
G1 X78.307 Y78.840 E5.7832
G1 X78.303 Y78.846 E5.7841
G1 X78.285 Y78.876 E5.7887
G1 X78.282 Y78.882 E5.7895
G1 X77.855 Y79.560 E5.8931
G1 X77.851 Y79.565 E5.8940
G1 X77.832 Y79.594 E5.8984
G1 X77.829 Y79.599 E5.8992
G1 X77.361 Y80.259 E6.0038
G1 X77.355 Y80.267 E6.0051
G1 X77.324 Y80.307 E6.0116
G1 X77.318 Y80.314 E6.0129
G1 X76.318 Y81.505 E6.2139
G1 X76.312 Y81.512 E6.2152
G1 X76.277 Y81.550 E6.2219
G1 X76.270 Y81.558 E6.2232
G1 X75.643 Y82.189 E6.3383
G1 X75.638 Y82.194 E6.3392
G1 X75.612 Y82.219 E6.3438
G1 X75.607 Y82.224 E6.3447
G1 X75.004 Y82.764 E6.4494
G1 X74.997 Y82.771 E6.4507
G1 X74.957 Y82.803 E6.4573
G1 X74.949 Y82.809 E6.4586
G1 X73.687 Y83.766 E6.6634
G1 X73.679 Y83.772 E6.6647
G1 X73.636 Y83.802 E6.6715
G1 X73.627 Y83.808 E6.6728
G1 X72.896 Y84.270 E6.7847
G1 X72.889 Y84.274 E6.7858
G1 X72.852 Y84.296 E6.7913
G1 X72.845 Y84.300 E6.7924
G1 X71.813 Y84.857 E6.9441
G1 X71.800 Y84.864 E6.9459
G1 X71.735 Y84.894 E6.9552
G1 X71.722 Y84.900 E6.9570
G1 X71.327 Y85.057 E7.0119
G1 X71.306 Y85.064 E7.0148
G1 X71.196 Y85.096 E7.0296
G1 X71.175 Y85.102 E7.0325
G1 X70.873 Y85.161 E7.0723
G1 X70.846 Y85.164 E7.0758
G1 X70.706 Y85.176 E7.0940
G1 X70.679 Y85.176 E7.0975
G1 X70.111 Y85.158 E7.1709
G1 X70.081 Y85.155 E7.1748
G1 X70.063 Y85.152 E7.1772
G1 X69.894 Y85.335 E7.2094
G1 X69.877 Y85.352 E7.2124
G1 X69.789 Y85.431 E7.2278
G1 X69.771 Y85.445 E7.2308
G1 X69.519 Y85.630 E7.2711
G1 X69.496 Y85.645 E7.2747
G1 X69.370 Y85.716 E7.2935
G1 X69.345 Y85.729 E7.2971
G1 X68.818 Y85.951 E7.3711
G1 X68.796 Y85.959 E7.3740
G1 X68.685 Y85.994 E7.3890
G1 X68.664 Y86.000 E7.3920
G1 X67.849 Y86.175 E7.4997
G1 X67.843 Y86.176 E7.5005
G1 X67.809 Y86.183 E7.5050
G1 X67.802 Y86.184 E7.5058
G1 X67.014 Y86.308 E7.6090
G1 X67.008 Y86.309 E7.6098
G1 X66.976 Y86.313 E7.6140
G1 X66.970 Y86.314 E7.6148
G1 X66.404 Y86.373 E7.6884
G1 X66.381 Y86.375 E7.6914
G1 X66.261 Y86.376 E7.7069
G1 X66.238 Y86.375 E7.7099
G1 X65.773 Y86.333 E7.7702
G1 X65.743 Y86.329 E7.7741
G1 X65.591 Y86.296 E7.7943
G1 X65.561 Y86.287 E7.7982
G1 X65.090 Y86.120 E7.8629
G1 X65.059 Y86.107 E7.8672
G1 X64.916 Y86.032 E7.8881
G1 X64.821 Y86.087 E7.9023
G1 X64.799 Y86.098 E7.9055
G1 X64.682 Y86.151 E7.9221
G1 X64.659 Y86.160 E7.9253
G1 X64.304 Y86.276 E7.9736
G1 X64.279 Y86.283 E7.9770
G1 X64.146 Y86.311 E7.9946
G1 X64.120 Y86.315 E7.9980
G1 X63.649 Y86.362 E8.0591
G1 X63.622 Y86.363 E8.0626
G1 X63.483 Y86.361 E8.0807
G1 X63.456 Y86.359 E8.0842
G1 X62.558 Y86.246 E8.2011
G1 X62.551 Y86.244 E8.2021
G1 X62.511 Y86.238 E8.2073
G1 X62.504 Y86.237 E8.2083
G1 X61.649 Y86.072 E8.3209
G1 X61.642 Y86.070 E8.3218
G1 X61.608 Y86.063 E8.3263
G1 X61.601 Y86.061 E8.3272
G1 X60.824 Y85.865 E8.4308
G1 X60.818 Y85.863 E8.4317
G1 X60.785 Y85.854 E8.4361
G1 X60.779 Y85.852 E8.4370
G1 X60.015 Y85.614 E8.5404
G1 X60.009 Y85.612 E8.5412
G1 X59.977 Y85.601 E8.5456
G1 X59.970 Y85.598 E8.5465
G1 X59.221 Y85.318 E8.6499
G1 X59.215 Y85.316 E8.6508
G1 X59.183 Y85.303 E8.6552
G1 X59.177 Y85.301 E8.6561
G1 X58.470 Y84.991 E8.7559
G1 X58.464 Y84.988 E8.7567
G1 X58.433 Y84.974 E8.7612
G1 X58.427 Y84.971 E8.7620
G1 X57.640 Y84.574 E8.8761
G1 X57.634 Y84.570 E8.8770
G1 X57.602 Y84.553 E8.8817
G1 X57.596 Y84.550 E8.8826
G1 X56.903 Y84.148 E8.9861
G1 X56.898 Y84.145 E8.9869
G1 X56.869 Y84.127 E8.9913
G1 X56.863 Y84.123 E8.9921
G1 X56.194 Y83.684 E9.0957
G1 X56.188 Y83.681 E9.0965
G1 X56.160 Y83.661 E9.1010
G1 X56.155 Y83.657 E9.1018
G1 X55.510 Y83.182 E9.2054
G1 X55.504 Y83.177 E9.2063
G1 X55.476 Y83.155 E9.2109
G1 X55.471 Y83.151 E9.2118
G1 X54.810 Y82.602 E9.3230
G1 X54.803 Y82.596 E9.3242
G1 X54.767 Y82.563 E9.3305
G1 X54.760 Y82.557 E9.3317
G1 X53.756 Y81.582 E9.5126
G1 X53.735 Y81.559 E9.5166
G1 X53.636 Y81.433 E9.5374
G1 X53.618 Y81.408 E9.5414
G1 X53.330 Y80.928 E9.6138
G1 X53.316 Y80.901 E9.6177
G1 X53.252 Y80.757 E9.6380
G1 X53.242 Y80.729 E9.6419
G1 X53.127 Y80.342 E9.6940
G1 X53.121 Y80.319 E9.6972
G1 X53.098 Y80.194 E9.7136
G1 X53.095 Y80.174 E9.7163
G1 X52.896 Y80.093 E9.7440
G1 X52.861 Y80.076 E9.7491
G1 X52.686 Y79.969 E9.7756
G1 X52.654 Y79.945 E9.7807
G1 X52.187 Y79.541 E9.8606
G1 X52.161 Y79.515 E9.8654
G1 X52.037 Y79.369 E9.8901
G1 X52.016 Y79.340 E9.8949
G1 X51.499 Y78.497 E10.0227
G1 X51.494 Y78.489 E10.0239
G1 X51.472 Y78.448 E10.0299
G1 X51.467 Y78.440 E10.0311
G1 X51.054 Y77.636 E10.1481
